X: 1
T: The Road To Lisdoonvarna
R: reel
M: 4/4
L: 1/8
K: Dmix
C|DAAG ABcA|GE~E2cEGE|DAAG ABcA|BcAG FDD:|
A|defd cAAc|BGGB cAA2|defd cAAc|BcAG FDD:|


Tune 249	Setting 12969

